X:1
T:Halton Holgate, 87.87
T:Halton Holgate, 87.87
T:Courtesy of the Cyber Hymnal (http://www.hymntime.com/tch)
Z:Courtesy of the Cyber Hymnal (http://www.hymntime.com/tch)
%%score ( 1 2 ) ( 3 4 )
L:1/8
Q:1/4=113
M:4/4
K:D
V:1 treble nm="Staff"
V:2 treble 
V:3 bass nm="Halton Holgate, 87.87"
V:4 bass 
V:1
 [A,F]2 D2 [CA]2 D2 | E F [CG]2 [CG]2 [DF]2 | [DB]2 [DA]2 c2 [Fd]2 | [EG]2 [DF]2 [DF]2 [CE]2 | %4
 G F E D [A,A]2 [Ec]2 | B c [Ed]2 [Ed]2 [Ec]2 | [Dd]2 [DB]2 G2 [DF]2 | G F E2 [A,D]4 |] %8
V:2
 x2 D2 x2 D2 | E2 x6 | x4 A G x2 | x8 | A,2 A,2 x4 | F2 x6 | x4 D C x2 | D2 E D x4 |] %8
V:3
 [D,A,]2 [D,F,]2 [A,,E,]2 [B,,D,]2 | [G,,B,]2 [A,,A,]2 [D,A,]2 [D,A,]2 | %2
 G,2 [F,A,]2 [E,A,]2 [D,A,]2 | [C,A,]2 [D,A,]2 [A,,A,]4 | [D,A,]2 G, F, [C,E,]2 [A,,A,]2 | %5
 [D,A,]2 [E,^G,]2 A,2 A,2 | [F,A,]2 G,2 [E,A,]2 [D,A,]2 | B, A, [A,,G,]2 [D,F,]4 |] %8
V:4
 x8 | x8 | G,2 x6 | x8 | x2 D,2 x4 | x4 A,2 A, =G, | x2 G,2 x4 | G,,2 x6 |] %8

